remix/Business/attachment-line.svg

<svg viewBox="0 0 24 24" fill="currentColor" xmlns="http://www.w3.org/2000/svg"><path d="M14 13.5V8C14 5.79086 12.2091 4 10 4C7.79086 4 6 5.79086 6 8V13.5C6 17.0899 8.91015 20 12.5 20C16.0899 20 19 17.0899 19 13.5V4H21V13.5C21 18.1944 17.1944 22 12.5 22C7.80558 22 4 18.1944 4 13.5V8C4 4.68629 6.68629 2 10 2C13.3137 2 16 4.68629 16 8V13.5C16 15.433 14.433 17 12.5 17C10.567 17 9 15.433 9 13.5V8H11V13.5C11 14.3284 11.6716 15 12.5 15C13.3284 15 14 14.3284 14 13.5Z"/></svg>

<svg viewBox="0 0 24 24" xmlns="http://www.w3.org/2000/svg"><path fill="none" d="M0 0h24v24H0Z"/><path d="M14 13.5V8v0c0-2.21-1.8-4-4-4C7.79 4 6 5.79 6 8v5.5 0c0 3.58 2.91 6.5 6.5 6.5 3.58 0 6.5-2.92 6.5-6.5V4h2v9.5 0c0 4.69-3.81 8.5-8.5 8.5C7.8 22 4 18.19 4 13.5V8v0c0-3.32 2.68-6 6-6 3.31 0 6 2.68 6 6v5.5 0c0 1.93-1.57 3.5-3.5 3.5 -1.94 0-3.5-1.57-3.5-3.5V8h2v5.5 0c0 .82.67 1.5 1.5 1.5 .82 0 1.5-.68 1.5-1.5Z"/></svg>
